src/shared/assets/image/calendar/3-march.svg

<svg width="24" height="24" viewBox="0 0 24 24" fill="none" xmlns="http://www.w3.org/2000/svg">
<g clip-path="url(#clip0_1_389)">
<path d="M19.5 2H18V0.5C18 0.224 17.776 0 17.5 0C17.224 0 17 0.224 17 0.5V2H7V0.5C7 0.224 6.776 0 6.5 0C6.224 0 6 0.224 6 0.5V2H4.5C2.019 2 0 4.019 0 6.5V19.5C0 21.981 2.019 24 4.5 24H5.5C5.776 24 6 23.776 6 23.5C6 23.224 5.776 23 5.5 23H4.5C2.57 23 1 21.43 1 19.5V9H23V13.5C23 13.776 23.224 14 23.5 14C23.776 14 24 13.776 24 13.5V6.5C24 4.019 21.981 2 19.5 2ZM1 8V6.5C1 4.57 2.57 3 4.5 3H19.5C21.43 3 23 4.57 23 6.5V8H1Z" fill="#474A55"/>
<path d="M4.27 22.07C4.15 22.07 4.05667 22.0367 3.99 21.97C3.92333 21.8967 3.89 21.7967 3.89 21.67V15.28C3.89 15.1467 3.92333 15.0467 3.99 14.98C4.05667 14.9133 4.15 14.88 4.27 14.88C4.37667 14.88 4.46 14.9033 4.52 14.95C4.58667 14.99 4.64667 15.06 4.7 15.16L7.44 20.32H7.14L9.87 15.16C9.92333 15.06 9.98 14.99 10.04 14.95C10.1 14.9033 10.1867 14.88 10.3 14.88C10.4133 14.88 10.5033 14.9133 10.57 14.98C10.6367 15.0467 10.67 15.1467 10.67 15.28V21.67C10.67 21.7967 10.6367 21.8967 10.57 21.97C10.51 22.0367 10.4167 22.07 10.29 22.07C10.17 22.07 10.0767 22.0367 10.01 21.97C9.94333 21.8967 9.91 21.7967 9.91 21.67V16.05H10.15L7.65 20.74C7.60333 20.8267 7.55333 20.89 7.5 20.93C7.45333 20.9633 7.38333 20.98 7.29 20.98C7.19667 20.98 7.12333 20.96 7.07 20.92C7.01667 20.88 6.97 20.82 6.93 20.74L4.4 16.04H4.64V21.67C4.64 21.7967 4.60667 21.8967 4.54 21.97C4.48 22.0367 4.39 22.07 4.27 22.07ZM13.8947 22.09C13.5614 22.09 13.2614 22.0267 12.9947 21.9C12.7347 21.7667 12.528 21.5867 12.3747 21.36C12.2214 21.1333 12.1447 20.88 12.1447 20.6C12.1447 20.24 12.2347 19.9567 12.4147 19.75C12.6014 19.5433 12.9047 19.3967 13.3247 19.31C13.7514 19.2233 14.3314 19.18 15.0647 19.18H15.5147V19.71H15.0747C14.5347 19.71 14.108 19.7367 13.7947 19.79C13.488 19.8367 13.2714 19.92 13.1447 20.04C13.0247 20.16 12.9647 20.33 12.9647 20.55C12.9647 20.8233 13.058 21.0467 13.2447 21.22C13.438 21.3933 13.698 21.48 14.0247 21.48C14.2914 21.48 14.5247 21.4167 14.7247 21.29C14.9314 21.1633 15.0914 20.99 15.2047 20.77C15.3247 20.55 15.3847 20.2967 15.3847 20.01V18.87C15.3847 18.4567 15.3014 18.16 15.1347 17.98C14.968 17.7933 14.6947 17.7 14.3147 17.7C14.0814 17.7 13.848 17.73 13.6147 17.79C13.3814 17.85 13.1347 17.9467 12.8747 18.08C12.7814 18.1267 12.7014 18.1433 12.6347 18.13C12.568 18.11 12.5147 18.0733 12.4747 18.02C12.4347 17.9667 12.4114 17.9067 12.4047 17.84C12.398 17.7667 12.4114 17.6967 12.4447 17.63C12.4847 17.5633 12.5447 17.51 12.6247 17.47C12.918 17.3233 13.208 17.2167 13.4947 17.15C13.7814 17.0833 14.0547 17.05 14.3147 17.05C14.7347 17.05 15.0814 17.12 15.3547 17.26C15.628 17.3933 15.8314 17.6 15.9647 17.88C16.098 18.1533 16.1647 18.5067 16.1647 18.94V21.65C16.1647 21.7833 16.1314 21.8867 16.0647 21.96C16.0047 22.0333 15.9147 22.07 15.7947 22.07C15.668 22.07 15.5714 22.0333 15.5047 21.96C15.438 21.8867 15.4047 21.7833 15.4047 21.65V20.87H15.4947C15.4414 21.1233 15.338 21.34 15.1847 21.52C15.038 21.7 14.8547 21.84 14.6347 21.94C14.4147 22.04 14.168 22.09 13.8947 22.09ZM18.1553 23.87C18.022 23.87 17.922 23.8333 17.8553 23.76C17.7886 23.6933 17.7553 23.5933 17.7553 23.46V17.48C17.7553 17.3467 17.7886 17.2467 17.8553 17.18C17.922 17.1067 18.0186 17.07 18.1453 17.07C18.2786 17.07 18.3786 17.1067 18.4453 17.18C18.5186 17.2467 18.5553 17.3467 18.5553 17.48V18.43L18.4453 18.29C18.552 17.91 18.762 17.61 19.0753 17.39C19.3953 17.1633 19.7753 17.05 20.2153 17.05C20.6486 17.05 21.0253 17.1533 21.3453 17.36C21.672 17.56 21.922 17.85 22.0953 18.23C22.2753 18.6033 22.3653 19.05 22.3653 19.57C22.3653 20.0833 22.2753 20.53 22.0953 20.91C21.922 21.2833 21.6753 21.5733 21.3553 21.78C21.0353 21.9867 20.6553 22.09 20.2153 22.09C19.7753 22.09 19.3986 21.98 19.0853 21.76C18.772 21.5333 18.5586 21.2333 18.4453 20.86H18.5653V23.46C18.5653 23.5933 18.5286 23.6933 18.4553 23.76C18.382 23.8333 18.282 23.87 18.1553 23.87ZM20.0453 21.44C20.352 21.44 20.6153 21.3667 20.8353 21.22C21.062 21.0733 21.2353 20.86 21.3553 20.58C21.482 20.3 21.5453 19.9633 21.5453 19.57C21.5453 18.9633 21.4086 18.5 21.1353 18.18C20.8686 17.86 20.5053 17.7 20.0453 17.7C19.7453 17.7 19.482 17.7733 19.2553 17.92C19.0286 18.06 18.852 18.27 18.7253 18.55C18.6053 18.8233 18.5453 19.1633 18.5453 19.57C18.5453 20.17 18.682 20.6333 18.9553 20.96C19.2286 21.28 19.592 21.44 20.0453 21.44Z" fill="#474A55"/>
</g>
<defs>
<clipPath id="clip0_1_389">
<rect width="24" height="24" fill="white"/>
</clipPath>
</defs>
</svg>

<svg width="24" height="24" fill="none" xmlns="http://www.w3.org/2000/svg"><g clip-path="url(#a)" fill="#474A55"><path d="M19.5 2H18V.5a.5.5 0 0 0-1 0V2H7V.5a.5.5 0 0 0-1 0V2H4.5A4.5 4.5 0 0 0 0 6.5v13A4.5 4.5 0 0 0 4.5 24h1a.5.5 0 0 0 0-1h-1A3.5 3.5 0 0 1 1 19.5V9h22v4.5a.5.5 0 0 0 1 0v-7A4.5 4.5 0 0 0 19.5 2ZM1 8V6.5A3.5 3.5 0 0 1 4.5 3h15A3.5 3.5 0 0 1 23 6.5V8H1Z"/><path d="M4.27 22.07a.38.38 0 0 1-.28-.1.43.43 0 0 1-.1-.3v-6.39c0-.13.03-.23.1-.3.07-.07.16-.1.28-.1.1 0 .19.02.25.07.07.04.13.11.18.21l2.74 5.16h-.3l2.73-5.16c.05-.1.11-.17.17-.21a.42.42 0 0 1 .26-.07c.11 0 .2.03.27.1s.1.17.1.3v6.39c0 .13-.03.23-.1.3-.06.07-.15.1-.28.1a.38.38 0 0 1-.28-.1.43.43 0 0 1-.1-.3v-5.62h.24l-2.5 4.69a.57.57 0 0 1-.15.19.36.36 0 0 1-.21.05.36.36 0 0 1-.22-.06.5.5 0 0 1-.14-.18l-2.53-4.7h.24v5.63c0 .13-.03.23-.1.3-.06.07-.15.1-.27.1Zm9.62.02c-.33 0-.63-.06-.9-.19a1.63 1.63 0 0 1-.62-.54 1.33 1.33 0 0 1-.23-.76c0-.36.1-.64.27-.85.2-.2.5-.35.91-.44.43-.09 1.01-.13 1.74-.13h.45v.53h-.44c-.54 0-.96.03-1.28.08-.3.05-.52.13-.65.25-.12.12-.18.29-.18.51 0 .27.1.5.28.67.2.17.46.26.78.26a1.28 1.28 0 0 0 1.18-.71c.12-.22.18-.47.18-.76v-1.14c0-.41-.08-.71-.25-.89-.16-.19-.44-.28-.82-.28-.23 0-.46.03-.7.09a3.6 3.6 0 0 0-.74.29.38.38 0 0 1-.24.05.3.3 0 0 1-.16-.11.35.35 0 0 1-.07-.18c0-.07.01-.14.04-.21.04-.07.1-.12.18-.16a3.95 3.95 0 0 1 1.7-.42c.41 0 .76.07 1.03.21.28.13.48.34.61.62.14.27.2.63.2 1.06v2.71c0 .13-.03.24-.1.31-.06.07-.15.11-.27.11-.12 0-.22-.04-.29-.11a.44.44 0 0 1-.1-.31v-.78h.1c-.06.25-.16.47-.32.65a1.5 1.5 0 0 1-.55.42c-.22.1-.46.15-.74.15Zm4.27 1.78c-.14 0-.24-.04-.3-.11-.07-.07-.1-.17-.1-.3v-5.98c0-.13.03-.23.1-.3.06-.07.16-.11.29-.11.13 0 .23.04.3.11.07.07.1.17.1.3v.95l-.1-.14c.1-.38.31-.68.63-.9.32-.23.7-.34 1.14-.34.43 0 .8.1 1.13.31.32.2.57.49.75.87.18.37.27.82.27 1.34 0 .51-.1.96-.27 1.34-.18.37-.42.66-.74.87-.32.2-.7.31-1.14.31-.44 0-.82-.11-1.13-.33a1.69 1.69 0 0 1-.64-.9h.12v2.6c0 .13-.04.23-.11.3a.4.4 0 0 1-.3.11Zm1.89-2.43c.3 0 .57-.07.79-.22.22-.15.4-.36.52-.64s.19-.62.19-1.01c0-.6-.14-1.07-.41-1.39a1.34 1.34 0 0 0-1.1-.48 1.39 1.39 0 0 0-1.32.85c-.11.27-.17.61-.17 1.02 0 .6.13 1.06.4 1.39.28.32.64.48 1.1.48Z"/></g><defs><clipPath id="a"><path fill="#fff" d="M0 0h24v24H0z"/></clipPath></defs></svg>
